img/favicons/favicon-large.svg

<?xml version="1.0" encoding="utf-8"?>
<svg version="1.1" width="640" height="640" viewBox="0 0 640 640" xmlns="http://www.w3.org/2000/svg">
  <g transform="matrix(1, 0, 0, 1, 292, 569.48999)" style="" id="KN7PiCmGsFjMJSkGhNreA"/>
  <g transform="matrix(1.43 0 0 1.3 87.24 450.66)" id="vKAz3BsD0b7_w3QrC4Wug">
    <path style="stroke: rgb(0,0,0); stroke-width: 1; stroke-dasharray: none; stroke-linecap: butt; stroke-dashoffset: 0; stroke-linejoin: miter; stroke-miterlimit: 4; fill: rgb(255,255,255); fill-opacity: 0; fill-rule: nonzero; opacity: 1;" vector-effect="non-scaling-stroke" transform=" translate(0, 0)" d="M 0 0" stroke-linecap="round"/>
  </g>
  <g transform="matrix(1.536554, 0, 0, 1.606009, 102.803474, 378.439606)" id="odEYeGA7ghfNGes2XZMkp" style="">
    <path style="stroke: rgb(9,98,47); stroke-width: 1; stroke-dasharray: none; stroke-linecap: butt; stroke-dashoffset: 0; stroke-linejoin: miter; stroke-miterlimit: 4; fill: rgb(9,99,48); fill-rule: nonzero; opacity: 1;" vector-effect="non-scaling-stroke" transform=" translate(0, 0)" d="M -15.89577 106.16056 C -17.28351 107.44563000000001 -19.224050000000002 107.73017 -20.87023 106.88997 C -22.51641 106.04977000000001 -23.56934 104.23738 -23.56934 102.24402 L -23.56934 -101.79956999999999 L -23.56934 -101.79956999999999 C -23.56934 -104.61944999999999 -21.64933 -106.99403999999998 -19.09937 -107.32784999999998 C -16.54941 -107.66166999999999 -14.17482 -105.84928999999998 -13.571090000000002 -103.10844999999998 L 23.38938 64.68642000000003 L 23.38938 64.68642000000003 C 23.96068 67.28002000000002 23.14797 70.00540000000002 21.29029 71.72564000000003 z" stroke-linecap="round"/>
  </g>
  <g transform="matrix(1.536554, 0, 0, 1.636149, 129.451431, 169.807114)" id="q8AuMxeOH6sk-G45gPWUH" style="">
    <path style="stroke: rgb(160,179,57); stroke-width: 1; stroke-dasharray: none; stroke-linecap: butt; stroke-dashoffset: 0; stroke-linejoin: miter; stroke-miterlimit: 4; fill: rgb(160,179,57); fill-rule: nonzero; opacity: 1;" vector-effect="non-scaling-stroke" transform=" translate(0, 0)" d="M 4.38991 82.91435 C 4.98691 85.72695 7.34766 87.65383 9.97243 87.47086 C 12.597199999999999 87.28790000000001 14.717099999999999 85.04869000000001 14.98542 82.17577 L 30.30596 -81.86705 L 30.30596 -81.86705 C 30.43993 -83.30152000000001 30.01417 -84.73117 29.13424 -85.80156000000001 C 28.254299999999997 -86.87195000000001 27.00258 -87.48288000000001 25.689369999999997 -87.48288000000001 L -24.757800000000003 -87.48288000000001 L -24.757800000000003 -87.48288000000001 C -26.458080000000002 -87.48288000000001 -28.065330000000003 -86.63047 -29.122380000000003 -85.16809 C -30.179440000000003 -83.70572000000001 -30.57062 -81.79342000000001 -30.184670000000004 -79.97512 z" stroke-linecap="round"/>
  </g>
  <g transform="matrix(1.536554, 0, 0, 1.636149, 279.604034, 254.710617)" id="l2ISf2DOxUXKfD0sCaHpX" style="">
    <path style="stroke: rgb(9,98,47); stroke-width: 1; stroke-dasharray: none; stroke-linecap: butt; stroke-dashoffset: 0; stroke-linejoin: miter; stroke-miterlimit: 4; fill: rgb(9,99,48); fill-rule: nonzero; opacity: 1;" vector-effect="non-scaling-stroke" transform=" translate(0, 0)" d="M 5.43713 49.84481 L 10.614239999999999 -18.850839999999998 L 46.151160000000004 -48.00197 L 46.151160000000004 -48.00197 C 49.26812 -50.55883 50.144450000000006 -55.27529 48.188790000000004 -58.96859 L 48.074290000000005 -59.18482 L 48.074290000000005 -59.18482 C 47.19033 -60.85421 45.692310000000006 -62.02248 43.96569 -62.389050000000005 C 42.239070000000005 -62.755610000000004 40.45243 -62.284670000000006 39.065490000000004 -61.09741 L 10.614230000000003 -36.74215 L 15.010650000000002 -96.39433 L 15.010650000000002 -96.39433 C 15.172820000000002 -98.59470999999999 14.489760000000002 -100.76932 13.126730000000002 -102.39205 C 11.763700000000002 -104.01478 9.844860000000002 -104.9378 7.834460000000002 -104.9378 L 6.460480000000002 -104.9378 L 6.460480000000002 -104.9378 C 2.9401000000000024 -104.9378 0.0143000000000022 -101.95916 -0.25152999999999803 -98.10455999999999 L -8.475919999999999 21.149150000000006 L -31.86556 -9.785539999999994 L -31.86556 -9.785539999999994 C -33.92292 -12.506559999999993 -37.471779999999995 -13.192019999999994 -40.25123 -11.405229999999994 L -41.03357 -10.902299999999995 L -41.03357 -10.902299999999995 C -42.714949999999995 -9.821409999999995 -43.90193 -8.010479999999994 -44.30149 -5.916549999999995 C -44.70105 -3.8226099999999947 -44.275980000000004 -1.640779999999995 -43.131190000000004 0.09037000000000539 L -11.954180000000004 47.23610000000001 L -11.954180000000004 68.97523000000001 L -57.24986 112.48268000000002 L -57.24986 112.48268000000002 C -58.56107 113.74213000000002 -60.44068 113.99195000000002 -61.98768 113.11240000000002 C -63.53467 112.23285000000003 -64.43374 110.40319000000002 -64.25390999999999 108.50049000000003 L -43.60920999999999 -109.92331999999998 L -43.60920999999999 -109.92331999999998 C -43.40993999999999 -112.03156999999997 -41.79188999999999 -113.63345999999997 -39.86161999999999 -113.63345999999997 L 61.41214000000001 -113.63345999999997 L 61.41214000000001 -113.63345999999997 C 62.21989000000001 -113.63345999999997 62.990100000000005 -113.25896999999998 63.53303000000001 -112.60223999999997 C 64.07596000000001 -111.94550999999997 64.34114000000001 -111.06758999999997 64.26324000000001 -110.18474999999997 L 54.34553000000001 2.21601000000004 L 54.34553000000001 2.21601000000004 C 54.209100000000014 3.7621700000000398 53.52827000000001 5.18872000000004 52.44807000000001 6.1917600000000395 z" stroke-linecap="round"/>
  </g>
  <g transform="matrix(1.536554, 0, 0, 1.636149, 467.074524, 143.565826)" id="T9n49kX_188LCRnZzx02B" style="">
    <path style="stroke: rgb(160,179,57); stroke-width: 1; stroke-dasharray: none; stroke-linecap: butt; stroke-dashoffset: 0; stroke-linejoin: miter; stroke-miterlimit: 4; fill: rgb(160,179,57); fill-rule: nonzero; opacity: 1;" vector-effect="non-scaling-stroke" transform=" translate(0, 0)" d="M -41.42353 -43.04881 C -41.2941 -44.683020000000006 -40.04823 -45.937270000000005 -38.55436 -45.937270000000005 L 43.06446 -45.937270000000005 L 43.06446 -45.937270000000005 C 45.058479999999996 -45.937270000000005 46.84486 -44.58361000000001 47.55235999999999 -42.536480000000005 C 48.25984999999999 -40.48935 47.741119999999995 -38.175110000000004 46.24913999999999 -36.72243 L -36.749460000000006 44.08977 L -36.749460000000006 44.08977 C -38.79603000000001 46.08242 -41.741910000000004 46.50427 -44.185410000000005 45.15458 C -46.628910000000005 43.80489 -48.07659 40.956230000000005 -47.83961000000001 37.964040000000004 z" stroke-linecap="round"/>
  </g>
  <g transform="matrix(1.536554, 0, 0, 1.636149, 475.821136, 228.142105)" id="M97fm3cdcc150qISdnuJN" style="">
    <path style="stroke: rgb(44,177,74); stroke-width: 1; stroke-dasharray: none; stroke-linecap: butt; stroke-dashoffset: 0; stroke-linejoin: miter; stroke-miterlimit: 4; fill: rgb(44,177,74); fill-rule: nonzero; opacity: 1;" vector-effect="non-scaling-stroke" transform=" translate(0, 0)" d="M -32.31305 11.74002 L 56.41098 -74.62416999999999 L 56.41098 -74.62416999999999 C 58.004110000000004 -76.17492999999999 60.277770000000004 -76.55457 62.21868 -75.59389999999999 C 64.15959 -74.63323 65.40632 -72.51115999999999 65.40324 -70.17338999999998 L 65.22093 68.51448000000002 L 65.22093 68.51448000000002 C 65.21793 70.79919000000002 64.28085999999999 72.96169000000002 62.66824 74.40540000000001 C 61.05562 75.84910000000002 58.93788 76.42143000000002 56.89926 75.96449000000001 L -62.046760000000006 49.30352000000001 L -62.046760000000006 49.30352000000001 C -63.62519 48.94973000000002 -64.87973000000001 47.634740000000015 -65.27492000000001 45.919820000000016 C -65.67011000000001 44.204900000000016 -65.13615000000001 42.392960000000016 -63.90095000000001 41.257370000000016 L -43.61741000000001 22.609600000000015 L 33.77283 41.32013000000001 L 33.77283 41.32013000000001 C 35.78284 41.80609000000001 37.88227 41.182870000000015 39.39551 39.65103000000001 C 40.908750000000005 38.11920000000001 41.64484 35.87206000000001 41.36689 33.63276000000001 L 41.150009999999995 31.885470000000012 L 41.150009999999995 31.885470000000012 C 40.806549999999994 29.118390000000012 38.895709999999994 26.899150000000013 36.398959999999995 26.367640000000012 z" stroke-linecap="round"/>
  </g>
  <g transform="matrix(1.472085, 0, 0, 1.573222, 398.756897, 448.581604)" id="hE58BsWp3y3qUBDAlPN2P" style="">
    <path style="stroke: rgb(44,177,74); stroke-width: 1; stroke-dasharray: none; stroke-linecap: butt; stroke-dashoffset: 0; stroke-linejoin: miter; stroke-miterlimit: 4; fill: rgb(44,177,74); fill-rule: nonzero; opacity: 1;" vector-effect="non-scaling-stroke" transform=" translate(0, 0)" d="M -70.66746 -38.20823 L -35.65677000000001 -72.12527 L -35.65677000000001 -72.12527 C -34.416520000000006 -73.32678 -32.73301000000001 -73.81594 -31.113900000000008 -73.44527 L 115.47058000000001 -39.886289999999995 L 115.47058000000001 -39.886289999999995 C 118.02599000000001 -39.30125999999999 119.85718000000001 -36.827999999999996 119.85718000000001 -33.961639999999996 L 119.85718000000001 67.90386000000001 L 119.85718000000001 67.90386000000001 C 119.85718000000001 69.63075 119.13957000000002 71.26325000000001 117.90826000000001 72.33751000000001 C 116.67695000000002 73.41177 115.06652000000001 73.81036 113.53457000000002 73.42002000000001 L -116.05906999999998 14.919650000000011 L -116.05906999999998 14.919650000000011 C -117.88666999999998 14.453980000000012 -119.31249999999997 12.884790000000011 -119.73246999999998 10.876910000000011 C -120.15243999999998 8.869030000000011 -119.49302999999998 6.773950000000011 -118.03362999999997 5.479290000000011 L -84.44945999999997 -24.313529999999986 L 73.18890000000003 7.476930000000014 L 73.18890000000003 7.476930000000014 C 75.15400000000004 7.873230000000014 77.17787000000003 7.290410000000014 78.71295000000003 5.886160000000014 C 80.24803000000003 4.481910000000013 81.13564000000004 2.4013900000000135 81.13564000000004 0.20747000000001403 L 81.13564000000004 -3.143179999999986 L 81.13564000000004 -3.143179999999986 C 81.13564000000004 -5.355939999999986 79.71642000000004 -7.262579999999986 77.74159000000003 -7.702899999999986 L 28.92916000000003 -18.586309999999987 L 49.622470000000035 -26.953439999999986 L 49.622470000000035 -26.953439999999986 C 51.47359000000004 -27.701919999999987 52.88376000000004 -29.382569999999987 53.411820000000034 -31.469609999999985 C 53.93988000000003 -33.55664999999998 53.52134000000004 -35.79519999999999 52.28713000000003 -37.48495999999999 L 51.99551000000003 -37.884219999999985 L 51.99551000000003 -37.884219999999985 C 50.26099000000003 -40.25895999999999 47.34255000000003 -41.15847999999998 44.73598000000003 -40.121729999999985 L 4.991240000000033 -24.313529999999986 z" stroke-linecap="round"/>
  </g>
  <g transform="matrix(1.658383, 0, 0, 1.670529, 288.433014, 548.253906)" id="nLHj3zP9wsMWljVvbueSS" style="">
    <path style="stroke: rgb(160, 179, 57); stroke-width: 1; stroke-dasharray: none; stroke-linecap: butt; stroke-dashoffset: 0; stroke-linejoin: miter; stroke-miterlimit: 4; fill: rgb(160, 179, 57); fill-rule: nonzero; opacity: 1;" vector-effect="non-scaling-stroke" d="M -53.815 -27.663 C -59.021 -28.834 -62.795 -27.369 -63.597 -26.632 L -115.267 19.974 C -116.82 21.403 -117.409 23.731 -116.741 25.805 C -116.075 27.879 -114.294 29.258 -112.282 29.258 L 116.048 29.258 C 118.022 29.258 119.706 27.644 119.977 25.493 C 120.247 23.343 119.018 21.331 117.111 20.801 L -53.815 -27.663 Z" stroke-linecap="round" transform="matrix(1, 0.000446, -0.000453, 1, 0.000135, -0.000669)"/>
  </g>
</svg>

<svg width="640" height="640" xmlns="http://www.w3.org/2000/svg"><g><path style="stroke:#09622f;stroke-width:1;stroke-dasharray:none;stroke-linecap:butt;stroke-dashoffset:0;stroke-linejoin:miter;stroke-miterlimit:4;fill:#096330;fill-rule:nonzero;opacity:1" vector-effect="non-scaling-stroke" transform="matrix(1.53655 0 0 1.606 102.803 378.44)" d="M-15.896 106.16c-1.388 1.286-3.328 1.57-4.974.73-1.646-.84-2.7-2.653-2.7-4.646V-101.8c0-2.82 1.92-5.194 4.47-5.528 2.55-.334 4.925 1.479 5.529 4.22l36.96 167.794c.572 2.594-.241 5.32-2.099 7.04z" stroke-linecap="round"/></g><g><path style="stroke:#a0b339;stroke-width:1;stroke-dasharray:none;stroke-linecap:butt;stroke-dashoffset:0;stroke-linejoin:miter;stroke-miterlimit:4;fill:#a0b339;fill-rule:nonzero;opacity:1" vector-effect="non-scaling-stroke" transform="matrix(1.53655 0 0 1.63615 129.451 169.807)" d="M4.39 82.914c.597 2.813 2.958 4.74 5.582 4.557 2.625-.183 4.745-2.422 5.013-5.295L30.306-81.867c.134-1.435-.292-2.864-1.172-3.935-.88-1.07-2.131-1.68-3.445-1.68h-50.447c-1.7 0-3.307.852-4.364 2.314-1.057 1.462-1.449 3.375-1.063 5.193z" stroke-linecap="round"/></g><g><path style="stroke:#09622f;stroke-width:1;stroke-dasharray:none;stroke-linecap:butt;stroke-dashoffset:0;stroke-linejoin:miter;stroke-miterlimit:4;fill:#096330;fill-rule:nonzero;opacity:1" vector-effect="non-scaling-stroke" transform="matrix(1.53655 0 0 1.63615 279.604 254.71)" d="m5.437 49.845 5.177-68.696 35.537-29.151c3.117-2.557 3.993-7.273 2.038-10.967l-.115-.216c-.884-1.67-2.382-2.837-4.108-3.204-1.727-.367-3.514.104-4.9 1.292L10.613-36.742l4.397-59.652c.162-2.2-.521-4.375-1.884-5.998-1.363-1.623-3.282-2.546-5.293-2.546H6.46c-3.52 0-6.446 2.979-6.712 6.833L-8.476 21.15l-23.39-30.935c-2.057-2.72-5.606-3.406-8.385-1.62l-.783.504c-1.68 1.08-2.868 2.892-3.267 4.985-.4 2.094.025 4.276 1.17 6.007l31.177 47.146v21.74l-45.296 43.507c-1.311 1.26-3.19 1.509-4.738.63-1.547-.88-2.446-2.71-2.266-4.613l20.645-218.423c.2-2.109 1.817-3.71 3.747-3.71H61.412c.808 0 1.578.374 2.121 1.03.543.657.808 1.535.73 2.418L54.346 2.216c-.137 1.546-.818 2.973-1.898 3.976z" stroke-linecap="round"/></g><g><path style="stroke:#a0b339;stroke-width:1;stroke-dasharray:none;stroke-linecap:butt;stroke-dashoffset:0;stroke-linejoin:miter;stroke-miterlimit:4;fill:#a0b339;fill-rule:nonzero;opacity:1" vector-effect="non-scaling-stroke" transform="matrix(1.53655 0 0 1.63615 467.075 143.566)" d="M-41.424-43.049c.13-1.634 1.376-2.888 2.87-2.888h81.618c1.994 0 3.78 1.353 4.488 3.4.708 2.048.19 4.362-1.303 5.815L-36.749 44.09c-2.047 1.992-4.993 2.414-7.436 1.065-2.444-1.35-3.892-4.199-3.655-7.191z" stroke-linecap="round"/></g><g><path style="stroke:#2cb14a;stroke-width:1;stroke-dasharray:none;stroke-linecap:butt;stroke-dashoffset:0;stroke-linejoin:miter;stroke-miterlimit:4;fill:#2cb14a;fill-rule:nonzero;opacity:1" vector-effect="non-scaling-stroke" transform="matrix(1.53655 0 0 1.63615 475.821 228.142)" d="m-32.313 11.74 88.724-86.364c1.593-1.55 3.867-1.93 5.808-.97 1.94.96 3.187 3.083 3.184 5.42l-.182 138.688c-.003 2.285-.94 4.448-2.553 5.891-1.612 1.444-3.73 2.016-5.769 1.56L-62.047 49.303c-1.578-.354-2.833-1.67-3.228-3.384-.395-1.715.139-3.527 1.374-4.663l20.284-18.647 77.39 18.71c2.01.486 4.11-.137 5.623-1.669s2.249-3.779 1.97-6.018l-.216-1.748c-.343-2.767-2.254-4.986-4.751-5.517z" stroke-linecap="round"/></g><g><path style="stroke:#2cb14a;stroke-width:1;stroke-dasharray:none;stroke-linecap:butt;stroke-dashoffset:0;stroke-linejoin:miter;stroke-miterlimit:4;fill:#2cb14a;fill-rule:nonzero;opacity:1" vector-effect="non-scaling-stroke" transform="matrix(1.47209 0 0 1.57322 398.757 448.582)" d="m-70.667-38.208 35.01-33.917c1.24-1.202 2.924-1.69 4.543-1.32l146.585 33.559c2.555.585 4.386 3.058 4.386 5.924V67.904c0 1.727-.717 3.36-1.949 4.434-1.231 1.074-2.841 1.472-4.373 1.082l-229.594-58.5c-1.828-.466-3.253-2.035-3.673-4.043-.42-2.008.239-4.103 1.698-5.398l33.585-29.793L73.189 7.476c1.965.397 3.989-.186 5.524-1.59 1.535-1.404 2.423-3.485 2.423-5.679v-3.35c0-2.213-1.42-4.12-3.394-4.56L28.929-18.586l20.693-8.367c1.852-.749 3.262-2.43 3.79-4.517s.11-4.325-1.125-6.015l-.291-.4c-1.735-2.374-4.653-3.273-7.26-2.237L4.991-24.314z" stroke-linecap="round"/></g><g><path style="stroke:#a0b339;stroke-width:1;stroke-dasharray:none;stroke-linecap:butt;stroke-dashoffset:0;stroke-linejoin:miter;stroke-miterlimit:4;fill:#a0b339;fill-rule:nonzero;opacity:1" vector-effect="non-scaling-stroke" d="M-53.815-27.663c-5.206-1.171-8.98.294-9.782 1.031l-51.67 46.606c-1.553 1.429-2.142 3.757-1.474 5.831.666 2.074 2.447 3.453 4.459 3.453h228.33c1.974 0 3.658-1.614 3.929-3.765.27-2.15-.959-4.162-2.866-4.692L-53.815-27.663Z" stroke-linecap="round" transform="matrix(1.65838 .00075 -.00075 1.67053 288.433 548.253)"/></g></svg>
